X:1
T:Gallatin
T:Transcribed from Eclectic Harmony *, 1847 Alto by B. C. Johnston, 2018.
T:Isaac Watts, 1707 (Hymn 9, Book 2)                     86. 86. (C. M.)
T:E minor                  Andrew W. Johnson, 1847
%%score [ 1 2 3 4 ]
L:1/8
Q:1/4=140
M:6/4
K:G
V:1 treble nm="Tr." snm="Tr."
V:2 treble nm="A." snm="A."
V:3 treble-8 nm="T." snm="T."
V:4 bass nm="B." snm="B."
V:1
"_1.{" B6 d4 B2 | B4 A2 B4 B2 | d4 d2 e4 d2 | (B2 A2) B2"_}" B6 :| d6 e4 e2 | (d2 B2) A2 B4 B2 | %6
w: A- las, and|did my Sa- vior|bleed, And did my|Sove- * reign die?|Was it for|crimes * that I had|
w: Would he de-|vote that sa- cred|head For such a|worm * as I?|||
 d4 d2 e4 f2 | (e2 d2) B2 B6- | B6 B6 | d4 B2 B4 B2 | B4 B2 d4 d2 | e4 d2 (B2 A2) B2 | B12 |] %13
w: done He groaned up-|on * the tree?  |_ A-|ma- zing pi- ty,|grace un- known, And|love be- yond * de-|gree!|
w: |||||||
V:2
"_2.{" B6 (B2 A2) B2 | B4 A2 E4 F2 | A4 d2 B4 B2 | (G2 A2) F2"_}" E6 :| D6 E4 E2 | %5
w: Thy bo- * dy|slain, sweet Je- sus,|thine, And bathed in|its * own blood,|Well might the|
w: While all * ex-|posed to wrath di-|vine The glo- rious|Suf- * ferer stood!||
 (G2 B2) A2 B4 B2 | A4 d2 B4 B2 | G4 D2 E6- | E6 E6 | D4 F2 (G2 A2) G2 | E4 D2 (D2 F2) D2 | %11
w: sun * in dark- ness|hide, And shut his|glo- ries in,  |_ When|God, the migh- * ty|Ma- ker, died * For|
w: ||||||
 E4 A2 (B2 A2) F2 | E12 |] %13
w: man, the crea- * ture's|sin.|
w: ||
V:3
"_3.{" B6 (B2 A2) F2 | E4 D2 E4 F2 | A4 A2 B4 d2 | (B2 A2) F2"_}" E6 :| A6 B4 B2 | %5
w: Thus might * I|hide my blu- shing|face While his dear|cross * ap- pears;|But drops of|
w: Dis- solve * my|heart in thank- ful-|ness, And melt my|eyes * to tears.||
 (d2 B2) d2 e4 e2 | A4 A2 B4 B2 | (d2 B2) d2 (e4 d2 | B6) e6 | d4 B2 (G2 A2) B2 | %10
w: grief * can ne'er re-|pay The debt of|love * I owe;   _|_ Here,|Lord, I give * my-|
w: |||||
 E4 D2 (D2 F2) A2 | B4 d2 (B2 A2) F2 | E12 |] %13
w: self a- way; * Tis|all that I * can|do.|
w: |||
V:4
 E,6 D,4 B,,2 | G,4 G,2 E,4 B,,2 | D,4 D,2 E,4 E,2 | B,,4 B,,2 E,6 :| D,6 E,4 E,2 | %5
 G,4 D,2 E,4 E,2 | D,4 D,2 E,4 E,2 | G,4 D,2 E,6- | E,6 E,6 | D,4 B,,2 G,4 G,2 | E,4 B,,2 D,4 D,2 | %11
"__________________________________________________________________\n*Reproduced in Eskew (2001).\n\nEdited by B. C. Johnston, 2018\n   1. Measure 1, \nTreble\n: last note changed from C to B.\n   2. Measure 10, \nTreble\n: notes changed from D C B A to D B B B.\n   3. Measure 11, \nTenor\n: notes changed from F D E F A to E D D F A.\n   4. Alto part written." E,4 D,2 B,,4 B,,2 | %12
 E,12 |] %13

